X:1
T:Ich liebe den Frühling
T:Ich liebe den Frühling/ I love the spring/ 我爱春天
T:Traditionell
C:Traditionell
%%score { 1 | 2 }
L:1/8
M:4/4
K:G
V:1 treble nm="Klavier" snm="Flgl."
V:2 bass 
V:1
 [B,DG]2 G F [G,B,E]2 E2 | z A A G [A,DF]E D2 | [DGB]2 B A [B,DG]2 G2 | z c cB [DFA]B c2 | %4
 [GBd]2 d c ([EGB]A) G2 | [EAc]B A G [A,DF]4 | [B,DG]G GG [G,B,E]E EE | [CEA]A AA [F,A,D]D EF :| %8
V:2
 G,4 E,4 | [E,A,C]4 F,4 | B,4 G,4 | [E,A,C]4 A,4 | D,4 B,4 | C4 A,4 | G,4 E,4 | A,4 D,4 :| %8

